src/pos-icons/cellphone-iphone.svg

<svg height="24" viewBox="0 0 24 24" width="24" xmlns="http://www.w3.org/2000/svg"><path d="m16 18h-9v-14h9m-4.5 18a1.5 1.5 0 0 1 -1.5-1.5 1.5 1.5 0 0 1 1.5-1.5 1.5 1.5 0 0 1 1.5 1.5 1.5 1.5 0 0 1 -1.5 1.5m4-21h-8a2.5 2.5 0 0 0 -2.5 2.5v17a2.5 2.5 0 0 0 2.5 2.5h8a2.5 2.5 0 0 0 2.5-2.5v-17a2.5 2.5 0 0 0 -2.5-2.5z"/></svg>

<?xml version="1.0" encoding="UTF-8"?><!DOCTYPE svg PUBLIC "-//W3C//DTD SVG 1.1//EN" "http://www.w3.org/Graphics/SVG/1.1/DTD/svg11.dtd"><svg xmlns="http://www.w3.org/2000/svg" xmlns:xlink="http://www.w3.org/1999/xlink" version="1.1" id="mdi-cellphone-iphone" width="24" height="24" viewBox="0 0 24 24"><path d="M16,18H7V4H16M11.5,22A1.5,1.5 0 0,1 10,20.5A1.5,1.5 0 0,1 11.5,19A1.5,1.5 0 0,1 13,20.5A1.5,1.5 0 0,1 11.5,22M15.5,1H7.5A2.5,2.5 0 0,0 5,3.5V20.5A2.5,2.5 0 0,0 7.5,23H15.5A2.5,2.5 0 0,0 18,20.5V3.5A2.5,2.5 0 0,0 15.5,1Z" /></svg>
